X: 1
T:Gan Ainm
R:Barn Dance
A:Fermanagh
D:Session tape - Derrygonelly, Fermanagh 1993
O:Ireland
Z:Bernie Stocks
M:4/4
L:1/8
K:D
f2ed BdAd|BdAd BdAd|f2ed BdAB|defe d4:|!
dfaf bfaf|dfaf e4|dfaf bfaf|dfef d4:|!
